X:860
T:Reel 860
M:4/4
K:Dmaj
L:1/8
AG|FDED FDED|B,EED E2EG|FDDF EDB,A,||FDFA d2AG:||2FDEC D2|Bc|dcdA BdAF|GEFD EDB,D|dcdB cdec|BABc d2B2|dABd ABAF|GEFD EDB,A,|DEFG AdcB|AF (3DDE D2|
